X:1
T:Ricercare I
T:Johann Jakob Froberger
T:Ricercar I
T:FbWV 401
C:Johann Jakob Froberger
%%score { ( 1 4 5 ) | ( 2 3 ) }
L:1/8
Q:1/2=68
M:4/4
K:Dmin
V:1 treble nm="Organ" snm="Org."
V:4 treble 
V:5 treble 
V:2 bass 
V:3 bass 
V:1
 z8 | z8 | z8 | z8 | z8 | z8 | z8 | z8 | z8 | z8 | z8 | z8 | z8 | c8 | G4 c4- | c4 =B4 | g6 f2 | %17
 e4 c4 | B8 | A8 | G6 c2- | c2 B2 A2 G2 | A4 G4- | G2 A2 =B2 cd | e8 | d8 | z8 | z8 | z8 | z8 | %30
 z8 | z4 c4 | G4 c4- | c4 =B4 | g6 f2 | e8 | c4 f4 | d8 | d6 c2 | B2 c2 d2 e2 | f6 ed | %41
 c2 d2 e2 f2 | g2 d2 f4- | f4 e4 | d4 e4 | A4 =B4- | B2 =B2 ^c2 d2- | d2 =c2 c4- | c2 B2 A4- | %49
 A2 GF G4 | E4 F4 | D4 E4- | E2 F2 G4 | A8 | D4 E2 F2 | G6 F2 | E8 | z8 | z8 | z8 | z8 | g8 | %62
 c4 f4- | f4 e4 | g6 f2 | e6 d2 | ccde f4- | f4 e4 | d6 d2 | e4 f4 | =B4 c4- | c2 d2 _e4- | %72
 e2 dc d4- | d2 c2 c4- | c2 B2 A2 G2 | A4 G2 A2 | =B2 c2 d4 | z8 | z8 | z8 | c8 | G4 c4- | c4 =B4 | %83
 g6 f2 | e8 | d8 | c8 | z8 | z8 | z8 | z2 gf ed e2 | d8 | c6 f2 | d4 e4 | z8 | z8 | z8 | z8 | g8 | %99
 c4 f4- | f4 e4 | c6 B2 | A8 | G4 z2 gf | ed e2 f4- | f2 ed e4 | d8 | c6 fe | dc d2 e4- | %109
 e2 c2 d4 | c4 c4- | c2 =BA B4 | c8 | z8 | z8 | z4 z2 cB | AG A2 G2 A2 | =B2 c2 d4- | d2 c4 =BA | %119
 _B6 B2- | B2 AG A4 | G6 gf | ed e2 d3 e | f6 ed | e2 cB AG A2 | x8 | z4 c4 | G4 c4- | c4 =B4 | %129
 g6 f2 | e4- ecde | f4 e4- | e2 d2- dc c2- | c2 =B2 c3 _B | A4 =B4- | B2 c2 d4 | z4 z2 gf | %137
 e2 d2 c3 B | A8 | %139
[Q:1/2=68] G6[Q:1/2=64][Q:1/2=62]"^.8" A[Q:1/2=61]"^.9"G[Q:1/2=67]"^.1"[Q:1/2=66]"^.3" | %140
[Q:1/2=61] F6[Q:1/2=55]"^.8" MF2[Q:1/2=59]"^.2"[Q:1/2=58]"^.4"[Q:1/2=57]"^.5" | %141
[Q:1/2=54] !fermata!E16 |] %142
V:2
 G,8 | C,4 F,4- | F,4 E,4 | C6 B,2 | A,8 | G,8 | A,6 A,2 | =B,4 C4- | C2 D2 E4 | F2 C2 F4- | %10
 F2 E4 D2- | D2 C2 C4- | C2 B,A, B,4- | B,4 A,4 | =B,2 C2 A,4 | G,6 A,2 | =B,8 | C6 A,2 | D4 E4 | %19
 F2 E2 D2 C2 | =B,4 C4 | D4 C4 | ^F,4 G,2 A,2 | =B,2 C2 D4 | C2 G,2 C4- | C4 B,4- | B,2 A,2 A,4 | %27
 G,8 | A,2 E,2 F,4- | F,2 G,2 A,2 D2- | D2 E2 F4- | F4 E4- | E4 D2 C2 | D4 D4- | D2 C=B, C4- | %35
 C4 C4- | C2 A,2 D4- | D6 G2- | G2 ^FE F4 | G8 | z8 | z8 | z8 | C8 | G,4 C4- | C4 =B,4 | G6 F2 | %47
 E6 DC | D6 C2 | B,8- | B,4 A,4 | G,8- | G,4 G,4- | G,2 F,E, F,4- | F,4 E,4 | D,8 | z4 G,4 | %57
 C,4 F,4- | F,4 E,4 | C6 B,2 | A,8 | G,8 | A,8 | G,6 C2- | C2 =B,A, B,4 | C8 | z8 | z8 | z8 | z8 | %70
 z8 | z8 | z8 | z4 C4 | G,4 C4- | C4 =B,4 | G6 F2 | E2 =B,2 D4- | D2 C=B, C4- | C4 B,4- | B,4 A,4 | %81
 C2 B,2 A,2 G,2 | A,4 G,2 A,2 | =B,2 C2 D4- | D4 C4- | C4 =B,4 | C4 z2 C2 | G,4 C4- | C4 =B,4 | %89
 G6 F2 | E4 C4 | F2 D2 G4- | G4 z2 DC | =B,A, B,2 C4 | A,8 | G,4 G,4- | G,2 A,2 G,4 | %97
 F,A,B,C D2 C2- | C2 =B,A, B,4 | C4 z4 | z4 z2 G,F, | E,D, E,2 ^F,2 G,2- | G,2 =F,E, F,4- | %103
 F,4 E,4 | A,4 D,4 | z8 | z4 z2 GF | ED E2 F4 | G6 GF | ED E2 D4 | E4 D2 C2 | D8 | C6 C2 | %113
 B,2 C2 D4 | C4 z2 C2 | G,4 C4- | C4 =B,4 | G6 F2 | E4 D4 | D8 | z8 | z8 | z8 | z2 DC =B,A, B,2 | %124
 C4 D4 | D4 C4 | D4 C4 | z2 C_B, A,G, A,2 | G,6 A,2 | =B,8 | C8 | D4 E2 A,2 | F4 E4 | D4 C4 | D8 | %135
 D2 C2 =B,4- | B,2 A,G, C4 | C6 C2 | C4 z2 DC | =B,A, B,2 C4- | C2 =B,A, B,4 | C16 |] %142
V:3
 z8 | z8 | z8 | z8 | z8 | z8 | z8 | z8 | z8 | z8 | z8 | z8 | z8 | z8 | z8 | z8 | z8 | z8 | z8 | %19
 z8 | z4 C,4 | G,,4 C,4- | C,4 =B,,4 | G,6 F,2 | E,6 C,2 | G,6 F,2 | E,2 F,E, D,2 C,2 | =B,,4 C,4 | %28
 A,,6 G,,2 | F,,4 F,4 | G,4 A,4 | =B,4 C4- | C2 _B,2 A,4 | G,6 F,2 | E,6 D,2 | C,2 D,2 E,2 C,2 | %36
 F,6 D,2 | B,6 G,2 | D,8 | G,8 | x8 | x8 | x8 | z8 | z8 | z8 | z8 | z8 | z8 | G,,8 | C,,4 F,,4- | %51
 F,,4 E,,4 | C,6 B,,2 | A,,4 z4 | G,,8 | G,,8 | C,6 B,,2- | B,,2 A,,G,, A,,2 D,2 | %58
 G,,2 A,,=B,, C,4- | C,2 D,2 E,4 | F,2 E,2 D,2 C,2 | =B,,4 C,2 _B,,2 | A,,4 D,4 | =B,,4 C,4 | z8 | %65
 z8 | x8 | x8 | G,8 | C,4 F,4- | F,4 E,4 | C6 B,2 | A,4 B,2 A,2 | G,4 A,4 | E,8 | ^F,4 G,4 | G,8 | %77
 G,8 | A,6 E,2 | ^F,4 G,2 =F,2 | E,4 F,4- | F,4 E,4 | ^F,4 G,4- | G,4 =B,,4 | C,2 D,2 E,2 F,2 | %85
 G,8 | C,8- | C,8 | z8 | z8 | z8 | z4 z2 G,F, | E,D, E,2 F,4- | F,4 E,4 | F,2 E,2 D,2 A,,2 | %95
 =B,,2 G,,2 C,2 D,2 | E,C, F,2- F,E, E,2 | F,8 | G,8 | A,4 z2 D,C, | =B,,A,, B,,2 C,4- | C,4 z4 | %102
 z8 | z8 | z8 | z8 | G,8 | C,4 F,4- | F,4 E,4 | C6 B,2 | A,8 | G,8 | z2 C,B,, A,,G,, A,,2 | %113
 G,,6 G,F, | E,D, E,2 F,4- | F,4 E,4 | ^F,4 G,4 | G,8 | z2 A,G, ^F,E, F,2 | G,D,E,^F, G,4 | x8 | %121
 x8 | x8 | z8 | z4 z2 D,C, | =B,,A,, B,,2 C,2 C2- | C2 B,4 A,2 | =B,2 C2 C4 | z8 | z8 | z8 | z8 | %132
 z4 C,4 | G,,4 C,4- | C,4 =B,,4 | G,6 F,2 | E,6 D,2 | C,6 E,,2 | F,,8 | G,,8 | G,,8 | %141
 !fermata!C,16 |] %142
V:4
 x8 | x8 | x8 | x8 | x8 | z4 G4 | C4 F4- | F4 E4 | c6 B2 | A8 | G4 F4 | E6 FE | D6 G2 | E4 F4- | %14
 F2 E2 D2 C2 | D4 G4- | G2 D2 G4- | G2 E2 A4- | A4 G4- | G4 F4- | F4 E3 ^F | G4 E4 | D8- | D4 G4 | %24
 G8 | z4 G4 | C4 F4- | F4 E4 | c6 B2 | A8 | B4 A4 | G8- | G4 ^F4 | G8- | G8- | G6 E2 | A4 A4- | %37
 A2 GF GA B2 | A8 | G6 FE | D2 E2 F2 G2 | A2 =B2 c2 _BA | B4 A4 | G4 c4- | c2 B2 A2 G2 | %45
 ^F2 D2 G4- | G4 A4 | G6 A2 | F6 E2 | D6 D2 | C8 | =B,4 C4- | C2 D2 E2 D2 | C6 DC | =B,4 C4- | %55
 C4 =B,4 | C4 z4 | x8 | x8 | z4 G4 | C4 F4- | F4 E4- | E4 D4- | D4 C4 | D6 D2 | CGAB c2 B2 | %66
 A4 G2 F2 | G2 C2 c4- | c2 BA B4- | B4 A4 | G6 F2 | E2 F2 G4 | F8 | E6 ^F2 | G4 E4 | D8 | D8 | %77
 G6 F2 | E8 | D8 | C8- | C4 E4 | D8- | D4 G4 | G8 | G6 F2 | E8 | z2 GF ED E2 | D6 G2- | G2 A2 =B4 | %90
 c8- | c4 B4- | B4 A4 | G4 z2 G2 | C4 F4- | F4 E4 | c6 B2 | A2 G2 F3 E | D4 z2 GF | ED E2 D4 | %100
 G8- | G4 D4 | C6 DC | =B,2 A,B, C4 | ^C4 DEFG | ADA=B cG c2- | c2 _BA B4- | B4 A4 | =B4 c4- | %109
 c2 AG ^F2 G2- | G2 G2 ^F4 | G4 z2 GF | ED E2 ^F4 | G2 A2 B4- | B4 A4 | z8 | z8 | z8 | z8 | %119
 z4 z2 G2 | C4 F4- | F4 E4 | c6 B2 | A4 G4 | z2 AG ^FE F2 | G3 =F E4 | F2 G2 E2 F2- | F2 E4 ^F2 | %128
 GDE^F G4- | G2 =FE D4 | CEFG A4- | A2 =B2 c4 | A4 G4 | z2 GF ED E2 | ^F2 D2 G4 | z4 G4 | G8 | %137
 G2 F2 EF G2- | G2 FE F4- | F4"^.5" E4 | D8 | C16 |] %142
V:5
 x8 | x8 | x8 | x8 | x8 | x8 | x8 | x8 | x8 | x8 | x8 | x8 | x8 | x8 | x8 | x8 | x8 | x8 | x8 | %19
 x8 | x8 | x8 | x8 | x8 | x8 | x8 | x8 | x8 | x8 | x8 | x8 | x8 | x8 | x8 | x8 | x8 | x8 | x8 | %38
 x8 | x8 | x8 | x8 | x8 | x8 | x8 | x8 | x8 | x8 | x8 | x8 | x8 | x8 | x8 | x8 | x8 | x8 | x8 | %57
 x8 | x8 | x8 | x8 | x8 | x8 | x8 | x8 | x8 | x8 | x8 | x8 | x8 | x8 | x8 | x8 | x8 | x8 | x8 | %76
 x8 | x8 | x8 | x8 | x8 | x8 | x8 | x8 | x8 | x8 | x8 | x8 | x8 | x8 | x8 | x8 | x8 | x8 | x8 | %95
 x8 | x8 | x8 | x8 | x8 | x8 | x8 | x8 | x8 | x8 | x8 | x8 | x8 | x8 | x8 | x8 | x8 | x8 | x8 | %114
 x8 | x8 | x8 | x8 | x8 | x8 | x8 | x8 | x8 | x8 | x8 | G2 z2 z4 | x8 | x8 | x8 | x8 | x8 | x8 | %132
 x8 | x8 | x8 | x8 | x8 | x8 | x8 | x8 | x8 | x16 |] %142

